X:1
T:Veni Creator Spiritus - Palestrina
T:#
%%score [ 1 2 { 3 | 4 } 5 ]
L:1/8
Q:1/4=130
M:none
K:Bb
V:1 treble nm="S" snm="S"
V:2 treble nm="A" snm="A"
V:3 treble-8 nm="T" snm="T"
V:4 treble 
V:5 bass nm="B" snm="B"
V:1
 x16 x6 ||"^Veni Creator Spiritus"[Q:1/4=200] B8 F8 | G8 (B8 | %3
w: |Men- tes|tu- o\-|
 c8)"^G. P. da Palestrina\n(1526-94)" B8 | (c8 d6) d2 | %5
w: * rum|vi\- * si-|
[Q:1/4=200][Q:1/4=200][Q:1/4=200][Q:1/4=200] c8 z4 e4 | (d2 c2 B2 A2 G4) A4 | B4 d8 (c4- | %8
w: ta, men-|tes * * * * tu-|o- rum vi\-|
 c4 =B2 A2 B4) B4 | c16 | B8 (c8 | d8 B8 | (G8 F8) | B16 | c8 F8) | (G6 A2 B8- | B4 A2 G2 A4) A4 | %17
w: * * * * si-|ta,|im- ple|* su-|per\- *|na||gra\- * *|* * * * ti-|
 B8 z8 | (A8 B8) | G8 F8- | F8 E8 | F4 (B6 A2 A2 GF | G4) G4 (F6 E2 | D4) F8 =E4 | F8 (A8 | B8 G8 | %26
w: a,|quae *|tu cre\-|* a-|sti pe\- * * * *|* cto- ra, *|* pe- cto-|ra, quae|* tu|
 F16 | E8 F4 (B4- | B2 A2 A2 GF G4) G4 |[Q:1/4=194] F16 |[Q:1/4=186] c12[Q:1/4=181] c4 | %31
w: cre-|a- sti pe\-|* * * * * * cto-|ra,|pe- cto-|
[Q:1/4=180] A16 ||[Q:1/4=130][Q:1/4=130][Q:1/4=130][Q:1/4=130] z22 | z20 || z26 | z28 || %36
w: ra.|||||
[Q:1/4=200][Q:1/4=200][Q:1/4=200][Q:1/4=200] F8 G8 | F8 E8) | (F8 G8) | (F2 G2 A2 B2 c6 B2 | %40
w: Tu se-|pti\- *|for\- *|mis * * * * *|
 A4 B4 c8) | (d12 c2 B2 | A4 d6 c2 B4- | B4 A2 G2 A4) A4 | B4 B8 A4 | G8 F4 D4 | F12 F4 | %47
w: |mu\- * *||* * * * ne-|re, dex- trae|De- i tu|di- gi-|
 D8 z4 B4- | B4 A4 (B6 A2 | G2 F2 G4) E4 F4 | G12 G4 | (A4 G8 F2 E2 | D2 C2 D4 E8- | E8) z8 | B16 | %55
w: tus, de\-|* trae De\- *|* * * i tu|di- gi-|tus, * * *|||tu|
 (c8 d8) | B8 (G8 | F8) B8 | B4 (c6 B2 B4- | B4 A4) (B8- | B4 A4 G8) | z8 z4 F4 | %62
w: ri\- *|te pro\-|* mis-|sum Pa\- * *|* * tris,||ser-|
 (G2 A2 B2 G2 A4) B4 | G8 (F6 E2 | F4) (G6 F2 F4- | F4) =E4 F8 | (A8 B8) | G8 F8- | F8 E8 | %69
w: mo\- * * * * ne|di- tans *|* gut\- * *|* tu- ra,|ser\- *|mo- ne|* di-|
 F8 (B8- |[Q:1/4=197] B8[Q:1/4=192] A8- | %71
w: tans gut\-||
[Q:1/4=188] A4[Q:1/4=186] G2[Q:1/4=185] F2[Q:1/4=183] G4)[Q:1/4=181] G4 |[Q:1/4=180] A16 |] %73
w: * * * * tu-|ra.|
[Q:1/4=130][Q:1/4=130][Q:1/4=130][Q:1/4=130] F2 G2 F2 E2 F2 G2 F2 B2 c2 B4 | %74
w: Ac- cen- de * lu- men * sen- si- bus,|
 B2 F2 F2 G2 B2 c2 B2 c2 d2 c4 | B2 c2 d2 B2 A2 G2 F2 B2 c2 F2 G2 B4 | %76
w: In- fun- de a- mo- rem * cor- di- bus,|In- fir\- * ma * nos\- * tri * cor- po- ris|
 A2 B2 G2 F2 E2 G2 G2 A2 G2 F2 E2 F2 F4 |[M:2/2][Q:1/4=200][Q:1/4=200][Q:1/4=200][Q:1/4=200] z16 | %78
w: Vir\- * tu- te * fir- mans * * per- pe\- * ti.||
 z16 | z16 | z16 | z16 | z16 | z16 | z16 | z16 | z16 | z16 | z16 | z16 | z16 | z16 | z16 | z16 | %94
w: ||||||||||||||||
 z16 | z16 | z16 | z16 | z16 | z16 | z16 | z16 | z16 | z16 | z16 | z16 | z16 | z16 | z16 | z16 | %110
w: ||||||||||||||||
 z16 | z16 | z16 | z16 | z16 | z16 | z16 | z16 | z16 | z16 | z16 | %121
w: |||||||||||
[Q:1/4=199] z16[Q:1/4=198][Q:1/4=196][Q:1/4=195][Q:1/4=192] | %122
w: |
[Q:1/4=188] z16[Q:1/4=184][Q:1/4=181] |[Q:1/4=180] z16 | %124
w: ||
[Q:1/4=130][Q:1/4=130][Q:1/4=130][Q:1/4=130] z22 | z20 || z26 | z28 || %128
w: ||||
[Q:1/4=200][Q:1/4=200][Q:1/4=200][Q:1/4=200] z16 | (F16 | G12) F4 | E8 (F8 | G8) F8 | (B8 c8- | %134
w: |Glo\-|* ri-|a Pa\-|* tri|Do\- *|
 c4) c4 B8 | z4 B4 c4 c4 | (d12 c2 B2 | d4) c8 (B4- | B4 A2 G2 A4) A4 | B16 | z8 B8 | F8 G8 | %142
w: * mi- no,|glo- ri- a|Pa\- * *|* tri Do\-|* * * * mi-|no,|Na-|to- que,|
 B8 c8 | (B6 c2 d4) d4 | c8 (d6 c2 | B4) (e6 d2 c4- | c4 =B2 A2 B4) B4 | c16 | z16 | z16 | z8 B8 | %151
w: qui a|mor\- * * tu-|is, a *|* mor\- * *|* * * * tu-|is|||sur-|
 (c8 d8) | (B6 A2 G8) | F8 (B8- | B4 d6 c2 c4- | c4 B8 A4 | (d8 c8) | z16 | z16 | z8 A8- | B8) G8 | %161
w: re\- *|xit, * *|ac Pa\-||* ra- cli-|to *|||in|* sae-|
 F16 | E8 (F6 G2 | A4)[Q:1/4=197] B8[Q:1/4=192] A4 |[Q:1/4=188] (G8[Q:1/4=183] F8) | %165
w: cu-|lo- rum *|* sae- cu-|la, *|
[Q:1/4=176] c12[Q:1/4=171] G4 |[Q:1/4=170] A16 |] %167
w: sae- cu-|la.|
V:2
 x16 x6 || z16 | E8 B,4 D4 | E4 F4 (G2 A2 B4- | B2 A2 A4 G2 F2 B4- | B4 A4 B8- | B8 z4 F4 | %7
w: ||Men- tes tu-|o- rum vi\- * *||* si- ta,|* men-|
 D4 D4 F4 F4 | G12 G4 | G8 E8 | F4 G4 (E2 F2 G2 A2 | B4 F4 G6 F2 | E4 D4 C4) C4 | B,8 G,8 | %14
w: tes tu- o- rum|vi- si-|ta, im-|ple su- per\- * * *|* na gra\- *|* * * ti-|a, im-|
 G,4 A,4 B,8 | G,4 G6 F2 D2 E2 | F12) F4 | D16 | z8 (D8 | E8) C8 | D8 C8 | A,4 D8 C4 | %22
w: ple su- per-|na gra\- * * *|* ti-|a,|quae|* tu|cre- a-|sti pe- cto-|
 (C6 B,2 A,4) D4- | D4 B,4 C8- | C8 z8 | (D8 E8) | C8 D8 | C8 A,4 D4- | D4 C4 (C6 B,2 | %29
w: ra, * * pe\-|* cto- ra,||quae *|tu cre-|a- sti pe\-|* cto- ra, *|
 A,4) (D2 C2 D2 E2 F4- | F4 =E2 D2 E4) E4 | F16 || z22 | z20 || z26 | z28 || z8 C8 | D8 (C8 | %38
w: * pe\- * * * *|* * * * cto-|ra.|||||Tu|se- pti\-|
 B,12) (C4- | C2 DE D6 =E2 E2 DE | F4) D4 (E2 F2 G4- | G2 F2 F8) E4 | F16 | F12 F4 | D8 z4 F4- | %45
w: * for\-||* mis mu\- * *|* * * ne-|re,|mu- ne-|re, dex\-|
 F4 E4 (F6 E2 | D2 C2 D4) C8 | B,4 (B6 A2 G4- | G4 F2 E2 D6 CD | E2 F2 E6 D2 C4- | %50
w: * trae De\- *|* * * i|tu di\- * *|||
 C4 =B,2 A,2 B,4) B,4 | C8 E8 | (F8 G8) | (G8 F6 E2 | D2 C2 B,2 A,2 G,8) | E8 (F8 | G8 E8 | %57
w: * * * * gi-|tus, tu|ri\- *|te, * *||tu ri\-|* te|
 (C8 B,8) | F12 F4 | F8 D8- | D8 z4 B,4 | C2 D2 E2 C2 D2 E2 F4- | F4 =E4 F4 D4 | C4 C4 (A,6 B,2 | %64
w: pro\- *|mis- sum|Pa- tris,|* ser-|mo\- * * * * * *|* ne di- tans|gut- tu- ra, *|
 C4) G,4 A,4) B,4 | C16 | z4 C4 (D2 E2 F2 D2 | E8 B,4 (D4- | D4 C4 B,4) B,4 | C4 D4) B,8 | %70
w: * gut\- * tu-|ra,|ser- mo\- * * *|* ne di\-|* * * tans|gut\- * tu-|
 G,4 (G6 F2 F4 | =E4 F8) E4 | F16 |] z22 | z22 | z26 | z28 | z16 | z16 | z16 | z16 | C8 D8 | %82
w: ra, gut\- * *|* * tu-|ra.|||||||||Ho- stem|
 (C8 B,8) | (C8 D8) | C8 F8- | F4 E4 (D8 | C8) z4 F4 | F4 E4 D4 C4 | (B,6 C2 D4) E4 | F16- | %90
w: re\- *|pel\- *|las lon\-|* gi- us,|* ho-|stem re- pel- las|lon\- * * gi-|us|
 F8 G8 | F4 D4 (D2 E2 F2 D2 | E8) D4 B,4- | B,4 A,4 G,4 G4 | F4 D4 (D2 E2 F2 D2 | E8 D4 B,4- | %96
w: * pa-|cem- que do\- * * *|* nes pro\-|* ti- nus, pa-|cem- que do\- * * *|* nes pro\-|
 B,4 A,4 G,4 G4- | G4 F4 G8- | G8 E8 | (F8 G8) | E6 D2 C8- | B,8 (E8- | E4 D2 C2 F4) B4- | %103
w: * ti- nus, pro\-|* ti- nus,|* du-|cto\- *|re * *|* sic|* * * * te|
 B4 G6 F2 D2 E2 | F2 G2 F8) =E4 | F16- | F16 | F16 | G8 F8 | E4 D4 G4 E4 | F8 z4 F4 | %111
w: * prae\- * * *|* * * vi-|o,||vi-|te- mus|o- mne no- xi-|um, vi-|
 F4 E4 (D6 C2 | B,4) D4 C4 C4 | (A,6 B,2 C4) (G,4- | G,2 A,2 B,2 C2 D8) | E4 F8 =E4 | (F6 _ED) C8 | %117
w: te- mus o\- *|* mne no- xi-|um, * * o\-||mne no- xi-|um, * * *|
 z8 z4 F4 | F4 E4 (D6 C2 | B,4) D4 C4 C4 | (A,6 B,2 C4) (G,4- | G,2 A,2 B,2 C2 D8) | E4 F8 =E4 | %123
w: vi-|te- mus o\- *|* mne no- xi-|um, * * o\-||mne no- xi-|
 F16 | z22 | z20 || z26 | z28 || (C16 | D12) C4 | B,16 | (C8 D8) | B,4 (E8 D2 C2 | D4) B,4 F8- | %134
w: um.|||||Glo\-|* ri-|a|Pa\- *|tri Do\- * *|* mi- no,|
 F8 z4 D4 | E4 F4 (G4 F2 E2 | D2 E2 F6 ED E4) | F8 G8- | G8 F8 | F8 F8 | G12 F4 | z4 F4 B,4 E4- | %142
w: * glo-|ri- a Pa\- * *||tri Do\-|* mi-|no, Na-|to- que,|Na- to- que,|
 E4 D4 C8 | G4 G4 F4 B4- | B4 A4 B8- | B4 G8 G4 | (G6 FE D4) G4 | G4 E4 (E2 F2 G2 A2 | B4) F4 F8 | %149
w: * qui a|mor- tu- is, Na\-|* to- que,|* qui a|mor\- * * * tu-|is, a mor\- * * *|* tu- is|
 z4 B,4 (B,2 C2 D2 E2 | F2 G2 A2 F2 G2 A2 B4- | B4) A4 B4 F4 | (G2 F2 F8) =E4 | F8 z4 G4- | %154
w: sur- re\- * * *||* xit, ac Pa-|ra\- * * cli-|to, sur\-|
 G4 F8 C4 | D4 F4 F6 F2 | F8 (A8 | B8) G8 | F16 | =E8 F4 F4 | (D6 C2 D4) E4 | C4 D4 (C4 B,2 A,2 | %162
w: * re- xit,|ac Pa- ra- cli-|to in|* sae-|cu-|lo- rum, in|sae\- * * cu-|lo- rum sae\- * *|
 B,4) C4 A,8 | z4 G,8 A,4 | (B,4 C4) F,4 (F4- | F4 =E2 D2 E4) E4 | F16 |] %167
w: * cu- la,|sae- cu-|lo\- * rum sae\-|* * * * cu-|la.|
V:3
 F2 G2 F2 E2 F2 G2 F2 B2 c2 B4 || z16 | z16 | z16 | z8 B8 | F8 G8 | (B8 c8) | B8 (c8 | d12) d4 | %9
w: Ve- ni Cre\- * a- tor * Spi- ri- tus,||||Men-|tes tu-|o\- *|rum vi\-|* si-|
 c8 z4 c4 | d4 e4 (c2 d2 e2 f2 | B4 d4) e4 (B4 | c2 B2 B8) A4 | G4 d4 e8- | e4 e4 d8 | %15
w: ta im-|ple su- per\- * * *|* * na gra\-|* * * ti-|a, im- ple|* su- per-|
 B4 (e6 d2 d2 cB | c12) c4 | (B6 A2 G8 | D8 z8 | z8 (A8 | B8) G8 | F16 | E8 F4 B4- | %23
w: na gra\- * * * *|* ti-|a, * *||quae|* tu|cre-|a- sti pe\-|
 B2 A2 F4 G4) G4 | (F2 G2 A2 B2 c8) | z16 | (A8 B8) | G8 F8- | F8 E8 | F4 (B6 A2 F4 | G12) G4 | %31
w: * * * * cto-|ra, * * * *||quae *|tu cre\-|* a-|sti pe\- * *|* cto-|
 F16 || F2 G2 F2 E2 F2 G2 F2 B2 c2 B4 | B2 F2 G2 B2 c2 B2 c2 d2 c4 || %34
w: ra.|Qui di- ce\- * ris Pa\- * ra- cli- tus,|Do- num De- i, al\- * tis- si- mi,|
 B2 c2 d2 B2 A2 G2 F2 B2 c2 F2 G2 B4 | A2 B2 G2 F2 E2 G2 G2 A2 G2 F2 E2 F2 F4 || z16 | z16 | z16 | %39
w: Fons vi\- * vus, * ig\- * nis, * ca- ri- tas,|Et * spi- ri\- * ta- lis * * un- cti\- * o.||||
 F8 G8 | (F8 E8) | (F8 G8) | F8 (B8 | c12 c4 | (B2 c2 d2 B2 c8- | c8) z8 | B8 F8 | G8 B8- | %48
w: Tu se-|pti\- *|for\- *|mis mu\-|* ne-|re, * * * *||dex- trae|De- i|
 c8) B8- | B8 (c8 | d12) d4 | c16 | B16 | (c8 d8) | B12 G4 | G4 E4 (B6 A2 | G2 F2 E2 F2 G2 A2 B4- | %57
w: * tu|* di\-|* gi-|tus,|tu|ri\- *|te pro-|mis- sum Pa\- *||
 B4 A4 G2 A2 B2 c2 | d4 c4 d6 cB | c8 (B6) AG | F8) z8 | (A8 B8) | G8 F8 | E8 (F6 G2 | %64
w: ||* tris, * *||ser\- *|mo- ne|di- tans *|
 A4) (B4 A4 G2 F2 | G4) G4 (A6 B2 | c8) z4 B4 | (c2 d2 e2 c2 d6 c2 | B4) A4 G8 | F4 f4 e4 d4 | %70
w: * gut\- * * *|* tu- ra *|* ser-|mo\- * * * * *|* ne di-|tans, ser- mo- ne|
 e4 e4 c8- | c8 c8 | c16 |] z22 | z22 | z26 | z28 | z16 | F8 G8 | (F8 E8) | (F8 G8) | F8 B8- | %82
w: di- tans gut\-|* tu-|ra.||||||Ho- stem|re\- *|pel\- *|las lon\-|
 B4 A4 G8- | F8 z4 f4 | f4 e4 d4 B4 | (c8 F6 G2 | A4 G4) (F8 | G8) F4 f4 | e4 d4 B4 B4 | c4 d4 c8 | %90
w: * gi- us,|* ho-|stem re- pel- las|lon\- * *|* * gi\-|* us, ho-|stem re- pel- las|lon- gi- us|
 d8 e8 | d4 B4 (A2 G2 A2 B2 | c8) F8- | F8 z8 | B8 F8 | G8 (B8 | c8) B8 | (c8 d6) d2 | %98
w: * pa-|cem- que do\- * * *|* nes,||pa- cem-|que do\-|* nes|pro\- * ti-|
 (c4 e8 d2 c2 | B8) z8 | z16 | z8 B8 | (c8 d8) | B8 (G8 | F8) B8 | (c8 B8- | B4 A2 G2 A4) A4 | %107
w: nus, * * *|||du-|cto\- *|re sic|* te|prae\- *|* * * * vi-|
 B8 B8 | E8 F8 | z16 | (A8 B8) | G8 F8- | F8 E8 | (F8 G8) | (B12 A4 | G4) F4 G4 c4 | %116
w: o, vi-|te- mus,||vi\- *|te- mus|* o-|mne *|no\- *|* xi- um, vi-|
 (c6 B2 A4 G4) | F4 f6 e2 d4- | d4 B4 (f6 e2 | d2 c2 B2 A2 G4) G4 | F4 f4 f4 e4 | (d6 c2 B4) d4 | %122
w: te\- * * *|mus o\- * *|* mne no\- *|* * * * * xi-|um, vi- te- mus|o\- * * mne|
 (c4 B2 AB c4) c4 | c16 | F2 G2 F2 E2 F2 G2 F2 B2 c2 B4 | B2 F2 G2 B2 c2 B2 c2 d2 c4 || %126
w: no\- * * * * xi-|um.|Per te sci\- * a- mus * da Pa- trem,|No- sca- mus at- que * Fi- li- um,|
 B2 c2 d2 B2 A2 G2 F2 B2 c2 F2 G2 B4 | A2 B2 G2 F2 E2 G2 G2 A2 G2 F2 E2 F2 F4 || z16 | z16 | z16 | %131
w: Te ut\- * ri\- * us\- * que * Spi- ri- tum|Cre\- * da- mus * o- mni * * tem- po\- * re.||||
 z16 | z16 | z8 (F8- | F8 G8- | G4) F4 E8 | (F8 G8) | F8 (B8 | c12) c4 | B16- | B8 z8 | z16 | %142
w: ||Glo\-||* ri- a|Pa\- *|tri Do\-|* mi-|no,|||
 B8 F8 | G8 (B8 | c8) B8- | B8 (c8 | d12) d4 | c16 | B8 (c8 | (d8 B8- | B4 A4 G8 | F8) B8- | %152
w: Na- to-|que, qui|* a|* mor\-|* tu-|is|sur- re\-|* xit,||* ac|
 B8 c6 B2 | A8 G8- | G4) B6 A2 A2 GA | (B8 c6) c2 | (B2 c2 d2 e2 f8 | B8) z8 | z16 | z8 z4 F4 | %160
w: * Pa\- *||* ra\- * * * *|* * cli-|to * * * *|||in|
 (G6 A2 B4) c4 | A4 B4 (A4 G2 F2 | G4) G4 F4 f4 | f4 d4 e4 c4 | e4 e4 f4 (F2 G2 | A2 B2 c8) c4 | %166
w: sae\- * * cu-|lo- rum sae\- * *|* cu- la, in|sae- cu- lo- rum|sae- cu- la, sae\- *|* * * cu-|
 c16 |] %167
w: la.|
V:4
 x22 || x16 | x16 | x16 | x16 | x16 | x16 | x16 | x16 | x16 | x16 | x16 | x16 | x16 | x16 | x16 | %16
w: ||||||||||||||||
 x16 | x16 | x16 | x16 | x16 | x16 | x16 | x16 | x16 | x16 | x16 | x16 | x16 | x16 | x16 | x16 || %32
w: ||||||||||||||||
 x22 | x20 || x26 | x28 || x16 | x16 | x16 | x16 | x16 | x16 | x16 | x16 | x16 | x16 | x16 | x16 | %48
w: ||||||||||||||||
 x16 | x16 | x16 | x16 | x16 | x16 | x16 | x16 | x16 | x16 | x16 | x16 | x16 | x16 | x16 | x16 | %64
w: ||||||||||||||||
 x16 | x16 | x16 | x16 | x16 | x16 | x16 | x16 | x16 |] x22 | x22 | x26 | x28 | C8 D8 | (C8 B,8) | %79
w: |||||||||||||Ho- stem|re\- *|
 (C12 B,2 C2 | D4) (C6 B,2 B,4- | B,2 A,2 A,4) G,4 A,4 | F,8 z4 (B,4- | B,2 A,G, A,4) B,4 B,4 | %84
w: pel\- * *|* las * *|* * * lon- gi-|us, ho\-|* * * * stem re-|
 G,8 F,8 | G,4 A,4 B,4 F4 | F4 E4 D4 B,4 | C6 B,2 A,2 G,2 A,4 | G,4 B,8 A,2 G,2 | (A,4 B,8) A,4 | %90
w: pel- las|lon- gi- us, ho-|stem re- pel- las|lon\- * * * *||* * gi-|
 B,16 | B,8 F,8 | G,8 (B,8 | C8) B,8 | (D6 CB, A,6) B,2 | C8 F8 | F4 F4 E4 D4- | D4 C8 =B,4 | %98
w: us|pa- cem-|que do\-|* nes|pro\- * * * ti-|nus, pa-|cem- que do- nes|* pro- ti-|
 C8 C8 | D4 D4 (E2 D2 C2 B,2 | C4) B,4 B,4 A,4 | B,8 G,8 | A,4 A,4 (B,2 A,2 G,2 F,2 | G,6 A,2 B,8 | %104
w: nus, du-|cto- re sic * * *|* te prae- vi-|o, du-|cto- re sic * * *||
 C8) D4 (B,4- | B,2 A,2 A,2 B,C D8 | C12) C4 | D8 (D8 | E8) C8 | B,16 | (C8 D8) | B,8 (F6 E2 | %112
w: * te prae\-||* vi-|o, vi\-|* te-|mus|o\- *|mne no\- *|
 D2 C2 B,2 A,2 G,4) G,4 | F,4 F4 F4 E4 | (D6 C2 B,4) D4 | C4 B,4 (C8 | A,8) z8 | (A,8 B,8) | %118
w: * * * * * xi-|um, vi- te- mus|o\- * * mne|no- xi- um,||vi\- *|
 G,8 F,8- | F,8 E,8 | F,8 G,8 | (B,12 A,4 | G,4 F,4 G,4) G,4 | A,16 | x22 | x20 || x26 | x28 || %128
w: te- mus|* o-|mne *|no\- *|* * * xi-|um.|||||
 (F,16 | B,12) A,4 | G,16- | G,8 B,8 | (G,6 A,2 B,4) F4- | F4 D4 C8- | C4 (F2 E2 D2 C2 B,4 | %135
w: Glo\-|* ri-|a|* Pa-|tri * * Do\-|* mi- no,|* Do\- * * * *|
 C2 B,2 B,8) A,4 | B,16 | z4 C4 D4 D4 | E4 E4 C4 F4 | D16 | E8 B,8 | C8 E8 | F16 | D12 F4 | F16 | %145
w: * * * mi-|no,|glo- ri- a|Pa- tri Do- mi-|no,|Na- to-|que, qui|a|mor- tu-|is,|
 G8 E8 | D4 (G6 FE D4) | E4 (G6 F2 E4 | D8) C4 F,4 | z4 G,4 (G,2 A,2 B,2 C2 | D2 E2 F6 E2 E2 D2 | %151
w: Na- to-|que, qui * * *|a mor\- * *|* tu- is|sur- re\- * * *||
 F8) F8 | z16 | z4 F,4 (G,2 A,2 B,2 C2 | D4) D4 F8- | F4 D4 C4 F4 | D8 z4 F4 | (D6 C2 D4) E4 | %158
w: * xit,||sur- re\- * * *|* xit, ac|* Pa- ra- cli-|to in|sae\- * * cu-|
 C4 D4 (C4 B,2 A,2 | B,4) C4 C8 | z16 | z16 | z8 z4 D4 | C4 B,4 C8 | G,4 (C8 B,4 | %165
w: lo- rum sae\- * *|* cu- la,|||in|sae- cu- lo-|rum sae\- *|
 A,4 G,2 F,2 G,4) G,4 | F,16 |] %167
w: * * * * cu-|la.|
V:5
 x16 x6 || z16 | z16 | z16 | z16 | z8 E,8 | B,,4 D,4 E,4 F,4 | (G,2 A,2 B,8 A,4 | G,12) G,4 | %9
w: |||||Men-|tes tu- o- rum|vi\- * * *|* si-|
 C,16 | z16 | z8 E,8- | E,8 (F,8 | G,8) E,8 | (C,8 B,,8) | (E,6 F,2 G,8) | F,12 F,4 | %17
w: ta,||im\-|* ple|* su-|per\- *|na * *|gra- ti-|
 B,,4 (B,6 A,2 G,4- | G,4 ^F,4 G,8 | (C,8 F,8) | B,,8 C,8 | D,2 C,2 B,,2 C,2 D,2 E,2 F,4) | %22
w: a, gra\- * *|* ti- a,|quae *|tu cre-|a\- * * * * * *|
 C,8 (D,6 C,2 | B,,4) D,4 C,8 | z8 F,8 | G,4 G,4 E,4 C,4 | F,4 F,4 B,,8 | C,8 D,4 (B,,2 C,2 | %28
w: sti pe\- *|* cto- ra,|quae|tu cre- a- sti|pec- to- ra,|quae tu cre\- *|
 D,2 E,2 F,4) C,8 | D,4 (B,,6 C,2 D,4 | C,12) C,4 | F,16 || z22 | z20 || z26 | z28 || z16 | z16 | %38
w: * * * a-|sti pe\- * *|* cto-|ra.|||||||
 z16 | z8 C,8 | D,8 (C,8 | B,,8) B,,4 C,4 | (D,6 C,2 B,,2 C,2 D,2 B,,2 | F,12 F,4 | B,,8 F,8 | %45
w: |Tu|se- pti\-|* for- mis|mu\- * * * * *|* ne-|re, dex-|
 C,8 D,8 | B,,4 B,8 A,4 | (B,6 A,2 G,2 F,2 G,4) | E,4 F,4 G,8 | E,6 F,G, _A,8 | G,12) G,4 | C,16 | %52
w: trae De-|i, dex- trae|De\- * * * *|i tu di\-||* gi-|tus,|
 z8 E,8- | E,8 (F,8 | G,8) E,8 | (C,8 B,,8) | E,16 | F,8 (G,6 A,2 | B,4 A,4 B,8 | F,8) B,,8 | %60
w: tu|* ri\-|* te|pro\- *|mis-|sum Pa\- *||* tris,|
 (D,8 E,8) | C,8 B,,8 | z8 z4 B,,4 | (C,2 D,2 E,2 C,2 D,2 E,2 F,4- | F,4) E,4 F,4 D,4 | (C,8 F,8- | %66
w: ser\- *|mo- ne,|ser-|mo\- * * * * * *|* ne di- tans|gut\- *|
 F,4) F,4 B,,8 | z16 | z4 F,4 (G,2 A,2 B,2 G,2 | A,4) B,4 (G,6 F,2 | E,8) F,8 | C,12 C,4 | F,16 |] %73
w: * tu- ra,||ser- mo\- * * *|* ne di\- *|* tans|gut- tu-|ra.|
 z22 | z22 | z26 | z28 | z16 | z16 | z16 | z16 | z16 | z16 | z16 | C,8 D,8 | (C,8 B,,8) | %86
w: |||||||||||Ho- stem|re\- *|
 (C,8 D,8) | C,8 (F,8 | G,12) G,4 | F,16 | z8 E,8 | B,,8 D,8 | C,8 B,,8 | z8 E,8 | B,,8 D,8 | %95
w: pel\- *|las lon\-|* gi-|us,|pa-|cem- que|do- nes,|pa-|cem- que|
 C,8 B,,8 | (F,8 G,6 F,G, | _A,8 G,6) G,2 | C,16 | z8 E,8- | E,8 (F,8- | G,8 E,8 | (C,8 B,,8) | %103
w: do- nes|pro\- * * *|* * ti-|nus,|du\-|* cto\-|* re|sic *|
 E,6 F,2 G,2 A,2 B,4- | B,4 A,4 G,8) | (F,6 E,2 D,4 B,,4 | F,12) F,4 | B,,16 | z4 B,4 B,4 A,4 | %109
w: te * * * *||prae\- * * *|* vi-|o,|vi- te- mus|
 (G,6 F,2 E,4) G,4 | F,4 F,4 B,,8 | z8 B,,8 | B,,8 C,8 | D,8 C,8 | (G,12 F,4 | E,4) D,4 C,8 | %116
w: o\- * * mne|no- xi- um,|vi-|te- mus|o- mne|no\- *|* xi- um,|
 z4 F,4 F,4 E,4 | D,8 B,,8 | z8 B,,8 | B,,8 C,8 | D,8 C,8 | (G,12 F,4 | E,4 D,4) C,8 | F,16 | z22 | %125
w: vi- te- mus|o- mne,|vi-|te- mus|om- mne|no\- *|* * xi-|um.||
 z20 || z26 | z28 || z16 | (B,,16 | E,12) D,4 | (C,8 B,,8) | E,8 B,,8- | B,,4 (B,8 A,2 G,2 | %134
w: ||||Glo\-|* ri-|a *|Pa- tri|* Do\- * *|
 A,4) A,4 (B,2 A,2 G,2 F,2 | E,4 D,4 C,8 | B,,8 z4 B,4 | B,4 A,4 G,8 | E,8 F,4 F,4 | B,,8 B,8 | %140
w: * mi- no, * * *||* glo-|ri- a Pa-|tri Do- mi-|no, Na-|
 E,8 G,4 B,4- | B,4 A,4 G,4 E,4 | (B,,4 B,6 A,G, A,4 | B,8 z8 | F,8 B,,4 D,4 | E,8 C,8 | G,12 G,4 | %147
w: to- que, qui|* a mor- tu-|is, * * * *||Na- to- que,|qui a|mor- tu-|
 C,4 C,4 C,2 D,2 E,2 F,2 | G,2 A,2 B,8) A,4 | B,4 B,4 G,4 G,4 | D,8 z8 | z16 | z8 z4 C,4 | %153
w: is sur- re\- * * *|* * * xit,|ac Pa- ra- cli-|to,||sur-|
 D,2 E,2 F,2 D,2 E,2 F,2 G,2 A,2 | B,4) B,,4 F,8 | B,,8 F,4 F,4 | B,,8 z4 F,4 | (G,6 A,2 B,4) C4 | %158
w: re\- * * * * * * *|* xit, ac|Pa- ra- cli-|to in|sae\- * * cu-|
 A,4 B,4 (A,4 G,2 F,2 | G,4) C,4 F,8 | z16 | z16 | z4 C,4 (D,6 E,2 | F,4) G,4 E,4 F,4 | %164
w: lo- rum sae\- * *|* cu- la,|||in sae\- *|* cu- lo- rum|
 (E,4 D,2 C,2 D,4) D,4 | (C,16 | F,16) |] %167
w: sae\- * * * cu-|la.||

